X:1     %Music
T:The Prickly Bush
B:Broadwood, Lucy, 1893, English Country Songs, Leadenhall Press, London
S:Heywood Sumner.
Z:Lucy Broadwood
F:http://www.folkinfo.org/songs
M:6/8     %Meter
M:3/4     %Meter
L:1/8     %
K:G
D |GF E3 G |AG F3 D |GG d2 B2 | A2 z2
w:"O hang-man, hold thy hand", he cried, "O hold thy hand a-while;
w:"O fat-her, have you brought me gold? Or will you set me free?
w:"No I have not brought thee gold, And I will not set you free;
D2 |GB B3 G |ce e/e3/2 z G/G/ |B d/ d/ (cBA) G | G4 z z |
w:For I can see my own dear fat-her Com-ing o-ver the yon-**der stile." 
w: Or be you come to see me hung,_ All_ on this_ high_ gall-ows tree?"
w: But I am come to see thee hung,_ All_ on this_ high_ gall-ows tree."
M:2/4     %Meter
L:1/16     %
DD |(G2A2G2) F2 |E6 E2 | (A2B2A2) G2 |F6
w:"Oh the prick-**ly bush, the prick-**ly bush,
 D2 |G6 G2 |G2B2 d2B2 | A4 z4 |z6 
w: It pricked my heart_ full_ sore;
D2 |G2F2 G2A2 |B4 G2G2 | (c2B2c2)d2 |e6
w:If ev-er I get out of the prick-**ly bush,
 G2 |BB3 d4 |(c2B2) A2G2 | G6 z2 |]
w: I'll ne-ver get in_ an-y more 
